_assets/images/soundcloud.svg

<svg height="1077" viewBox="0 0 2480 1077" width="2480" xmlns="http://www.w3.org/2000/svg"><path d="m120.346598 559.409499c-5.301669 0-9.653402 4.261875-10.320924 10.141207l-24.4287549 222.618742 24.4287549 217.702182c.667522 5.77664 5.019255 10.03851 10.320924 10.03851 5.21181 0 9.473684-4.15918 10.320924-10.03851l27.650835-217.702182-27.650835-222.721438c-.860077-5.866495-5.121951-10.038511-10.320924-10.038511zm-91.668806 85.327343c-5.21181 0-9.2811296 3.979461-9.9486521 9.653402l-18.17715017 137.779204 18.17715017 135.327343c.6675225 5.661104 4.7368421 9.653402 9.9486521 9.653402 5.0192555 0 9.0885751-3.992298 9.9358152-9.653402l21.3992298-135.327343-21.3992298-137.779204c-.8472401-5.686778-4.9165597-9.653402-9.9358152-9.653402zm189.011553-128.973042c-6.534018 0-11.745828 5.109114-12.41335 12.207959l-23.106547 264.197689 23.106547 254.441592c.667522 7.11168 5.879332 12.20796 12.41335 12.20796 6.431323 0 11.643133-5.09628 12.50321-12.10526l26.22593-254.544292-26.22593-264.197689c-.860077-7.098845-6.071887-12.207959-12.50321-12.207959zm98.189987-9.28113c-7.676508 0-13.915276 6.148909-14.492939 14.300385l-21.874198 271.39923 21.874198 262.593065c.564827 8.13864 6.816431 14.27471 14.492939 14.27471 7.676509 0 13.915276-6.1489 14.582799-14.27471l24.826701-262.593065-24.826701-271.489089c-.654686-8.061617-6.90629-14.210526-14.582799-14.210526zm115.622594 33.799743c-.564827-9.281129-7.753531-16.290115-16.572529-16.290115-8.998717 0-16.097561 7.008986-16.662388 16.48267l-20.641849 251.69448 20.641849 264.762512c.564827 9.35816 7.676508 16.48267 16.662388 16.48267 8.818998 0 16.007702-7.12451 16.572529-16.48267l23.491656-264.762512zm83.247753-176.22593c-10.038511 0-18.279846 8.138639-18.754814 18.652118l-19.409499 409.653402 19.409499 264.659817c.474968 10.33376 8.716303 18.56226 18.754814 18.56226 9.845956 0 18.087291-8.26701 18.741977-18.66495v.10269l21.874198-264.659817-21.874198-409.743261c-.667522-10.410783-8.896021-18.562259-18.741977-18.562259zm99.037227-94.415918c-11.27086 0-20.449294 9.191271-20.924262 20.744544l-18.087291 503.401797 18.087291 263.055204c.474968 11.46341 9.653402 20.62901 20.924262 20.62901 11.078306 0 20.359435-9.17844 20.834403-20.73171v.1027l20.55199-263.055204-20.55199-503.401797c-.474968-11.553273-9.74326-20.744544-20.834403-20.744544zm102.939667-45.442876c-12.50321 0-22.631579 10.038511-23.003852 22.913993l-16.957638 545.340179 16.957638 260.295249c.372273 12.68293 10.513479 22.73428 23.003852 22.73428 12.310654 0 22.439024-10.03851 22.913992-22.8113v.20539l19.02439-260.423619-19.02439-545.340179c-.474968-12.875482-10.603338-22.913993-22.913992-22.913993zm127.265725 4.544288c-.474968-14.017972-11.463415-25.006419-25.096277-25.006419-13.735559 0-24.813864 10.988447-25.096278 25.006419l-15.712452 563.722721 15.712452 258.793322c.175373 13.74319 11.352001 24.79976 25.096278 24.8267 13.632862 0 24.621309-10.97561 25.096277-24.99358l17.612323-258.613605zm77.843389-12.695764c-14.865212 0-26.893453 11.938383-27.175867 27.086008l-14.403081 549.31964 14.403081 256.341459c.282414 15.05777 12.310655 27.00899 27.175867 27.00899s26.803594-11.95122 27.278562-27.17587v.26958l16.097561-256.431322-16.097561-549.31964c-.487805-15.160462-12.41335-27.098845-27.278562-27.098845zm103.786903 17.997433c-16.09756 0-28.973039 12.875481-29.358148 29.255455l-13.068036 529.229782 13.145057 254.646987c.282414 16.20025 13.157897 29.07573 29.255457 29.07573s29.07574-12.87548 29.35815-29.25545v.20539l14.76252-254.634146-14.76252-529.332477c-.09872-16.135913-13.19628-29.170416-29.33248-29.191271zm121.96406-97.355584c-5.13164-3.428635-11.15833-5.272354-17.32991-5.301669-6.25161 0-12.1181 1.887034-17.0475 5.109114-8.87108 5.795891-14.27196 15.630114-14.40308 26.225931l-.19255 5.969191-11.74583 623.735558c0 .372273 11.92554 253.132223 11.92554 253.132223v1.02696c.38511 7.12451 3.02953 13.63286 7.3941 18.75481 5.89951 7.23158 14.72385 11.44598 24.05648 11.48909 8.52375 0 16.29012-3.60719 21.96406-9.29397s9.28113-13.45314 9.47368-22.07959l1.32221-25.09627 11.93838-227.830557-13.26059-629.807445c-.202-10.449158-5.45554-20.152419-14.09499-26.033376zm103.86393-59.6534022c-12.03448-7.3689397-27.43201-6.2214903-38.24134 2.8498075-7.74645 6.3209895-12.28871 15.7534653-12.40051 25.7509627l-.08986 3.504493-13.70988 683.504493 7.00898 126.328626 6.81643 123.003848c.19256 18.17715 15.25032 33.24776 33.5045 33.24776 18.29268 0 33.35045-15.07061 33.62002-33.51733v.26957l14.86521-249.332474-14.86521-687.008986c-.2204-11.7375298-6.45492-22.538851-16.50834-28.6007702zm923.49165 390.4364572c-41.7715 0-81.63029 8.421052-117.98459 23.671373-24.24904-274.801027-254.73684-490.33376086-535.77664-490.33376086-66.73099.07578261-132.88103 12.40249886-195.16046 36.36713736-23.01669 8.8960205-29.07574 18.0872914-29.34532 35.8921694v967.8690641c.26958 18.65212 14.73685 33.14506 32.93967 34.94223.75738.1027 845.34018 0 845.34018 0 168.45956 0 304.9294-134.942231 304.9294-303.401795-.01284-168.459563-136.48267-305.006418-304.94224-305.006418z" fill="#666" transform="translate(.109114 -.575096)"/></svg>

<?xml version="1.0" encoding="UTF-8"?>
<svg width="2480px" height="1077px" viewBox="0 0 2480 1077" version="1.1" xmlns="http://www.w3.org/2000/svg" xmlns:xlink="http://www.w3.org/1999/xlink">
    <!-- Generator: Sketch 56.2 (81672) - https://sketch.com -->
    <title>soundcloud-1</title>
    <desc>Created with Sketch.</desc>
    <g id="Page-1" stroke="none" stroke-width="1" fill="none" fill-rule="evenodd">
        <g id="soundcloud-1" transform="translate(0.109114, -0.575096)" fill="#666666" fill-rule="nonzero">
            <path d="M120.346598,559.409499 C115.044929,559.409499 110.693196,563.671374 110.025674,569.550706 L85.5969191,792.169448 L110.025674,1009.87163 C110.693196,1015.64827 115.044929,1019.91014 120.346598,1019.91014 C125.558408,1019.91014 129.820282,1015.75096 130.667522,1009.87163 L158.318357,792.169448 L130.667522,569.44801 C129.807445,563.581515 125.545571,559.409499 120.346598,559.409499 L120.346598,559.409499 Z M28.677792,644.736842 C23.465982,644.736842 19.3966624,648.716303 18.7291399,654.390244 L0.55198973,792.169448 L18.7291399,927.496791 C19.3966624,933.157895 23.465982,937.150193 28.677792,937.150193 C33.6970475,937.150193 37.7663671,933.157895 38.6136072,927.496791 L60.012837,792.169448 L38.6136072,654.390244 C37.7663671,648.703466 33.6970475,644.736842 28.677792,644.736842 L28.677792,644.736842 Z M217.689345,515.7638 C211.155327,515.7638 205.943517,520.872914 205.275995,527.971759 L182.169448,792.169448 L205.275995,1046.61104 C205.943517,1053.72272 211.155327,1058.819 217.689345,1058.819 C224.120668,1058.819 229.332478,1053.72272 230.192555,1046.71374 L256.418485,792.169448 L230.192555,527.971759 C229.332478,520.872914 224.120668,515.7638 217.689345,515.7638 L217.689345,515.7638 Z M315.879332,506.48267 C308.202824,506.48267 301.964056,512.631579 301.386393,520.783055 L279.512195,792.182285 L301.386393,1054.77535 C301.95122,1062.91399 308.202824,1069.05006 315.879332,1069.05006 C323.555841,1069.05006 329.794608,1062.90116 330.462131,1054.77535 L355.288832,792.182285 L330.462131,520.693196 C329.807445,512.631579 323.555841,506.48267 315.879332,506.48267 L315.879332,506.48267 Z M431.501926,540.282413 C430.937099,531.001284 423.748395,523.992298 414.929397,523.992298 C405.93068,523.992298 398.831836,531.001284 398.267009,540.474968 L377.62516,792.169448 L398.267009,1056.93196 C398.831836,1066.29012 405.943517,1073.41463 414.929397,1073.41463 C423.748395,1073.41463 430.937099,1066.29012 431.501926,1056.93196 L454.993582,792.169448 L431.501926,540.282413 L431.501926,540.282413 Z M514.749679,364.056483 C504.711168,364.056483 496.469833,372.195122 495.994865,382.708601 L476.585366,792.362003 L495.994865,1057.02182 C496.469833,1067.35558 504.711168,1075.58408 514.749679,1075.58408 C524.595635,1075.58408 532.83697,1067.31707 533.491656,1056.91913 L533.491656,1057.02182 L555.365854,792.362003 L533.491656,382.618742 C532.824134,372.207959 524.595635,364.056483 514.749679,364.056483 Z M613.786906,269.640565 C602.516046,269.640565 593.337612,278.831836 592.862644,290.385109 L574.775353,793.786906 L592.862644,1056.84211 C593.337612,1068.30552 602.516046,1077.47112 613.786906,1077.47112 C624.865212,1077.47112 634.146341,1068.29268 634.621309,1056.73941 L634.621309,1056.84211 L655.173299,793.786906 L634.621309,290.385109 C634.146341,278.831836 624.878049,269.640565 613.786906,269.640565 L613.786906,269.640565 Z M716.726573,224.197689 C704.223363,224.197689 694.094994,234.2362 693.722721,247.111682 L676.765083,792.451861 L693.722721,1052.74711 C694.094994,1065.43004 704.2362,1075.48139 716.726573,1075.48139 C729.037227,1075.48139 739.165597,1065.44288 739.640565,1052.67009 L739.640565,1052.87548 L758.664955,792.451861 L739.640565,247.111682 C739.165597,234.2362 729.037227,224.197689 716.726573,224.197689 Z M843.992298,228.741977 C843.51733,214.724005 832.528883,203.735558 818.896021,203.735558 C805.160462,203.735558 794.082157,214.724005 793.799743,228.741977 L778.087291,792.464698 L793.799743,1051.25802 C793.975116,1065.00121 805.151744,1076.05778 818.896021,1076.08472 C832.528883,1076.08472 843.51733,1065.10911 843.992298,1051.09114 L861.604621,792.477535 L843.992298,228.741977 L843.992298,228.741977 Z M921.835687,216.046213 C906.970475,216.046213 894.942234,227.984596 894.65982,243.132221 L880.256739,792.451861 L894.65982,1048.79332 C894.942234,1063.85109 906.970475,1075.80231 921.835687,1075.80231 C936.700899,1075.80231 948.639281,1063.85109 949.114249,1048.62644 L949.114249,1048.89602 L965.21181,792.464698 L949.114249,243.145058 C948.626444,227.984596 936.700899,216.046213 921.835687,216.046213 Z M1025.62259,234.043646 C1009.52503,234.043646 996.649551,246.919127 996.264442,263.299101 L983.196406,792.528883 L996.341463,1047.17587 C996.623877,1063.37612 1009.49936,1076.2516 1025.59692,1076.2516 C1041.69448,1076.2516 1054.67266,1063.37612 1054.95507,1046.99615 L1054.95507,1047.20154 L1069.71759,792.567394 L1054.95507,263.234917 C1054.85635,247.099004 1041.75879,234.064501 1025.62259,234.043646 L1025.62259,234.043646 Z M1147.58665,136.688062 C1142.45501,133.259427 1136.42832,131.415708 1130.25674,131.386393 C1124.00513,131.386393 1118.13864,133.273427 1113.20924,136.495507 C1104.33816,142.291398 1098.93728,152.125621 1098.80616,162.721438 L1098.61361,168.690629 L1086.86778,792.426187 C1086.86778,792.79846 1098.79332,1045.55841 1098.79332,1045.55841 L1098.79332,1046.58537 C1099.17843,1053.70988 1101.82285,1060.21823 1106.18742,1065.34018 C1112.08693,1072.57176 1120.91127,1076.78616 1130.2439,1076.82927 C1138.76765,1076.82927 1146.53402,1073.22208 1152.20796,1067.5353 C1157.8819,1061.84852 1161.48909,1054.08216 1161.68164,1045.45571 L1163.00385,1020.35944 L1174.94223,792.528883 L1161.68164,162.721438 C1161.47964,152.27228 1156.2261,142.569019 1147.58665,136.688062 L1147.58665,136.688062 Z M1251.45058,77.0346598 C1239.4161,69.6657201 1224.01857,70.8131695 1213.20924,79.8844673 C1205.46279,86.2054568 1200.92053,95.6379326 1200.80873,105.63543 L1200.71887,109.139923 L1187.00899,792.644416 L1194.01797,918.973042 L1200.8344,1041.97689 C1201.02696,1060.15404 1216.08472,1075.22465 1234.3389,1075.22465 C1252.63158,1075.22465 1267.68935,1060.15404 1267.95892,1041.70732 L1267.95892,1041.97689 L1282.82413,792.644416 L1267.95892,105.63543 C1267.73852,93.8979002 1261.504,83.096579 1251.45058,77.0346598 L1251.45058,77.0346598 Z M2174.94223,467.471117 C2133.17073,467.471117 2093.31194,475.892169 2056.95764,491.14249 C2032.7086,216.341463 1802.2208,0.80872914 1521.181,0.80872914 C1454.45001,0.884511745 1388.29997,13.211228 1326.02054,37.1758665 C1303.00385,46.071887 1296.9448,55.2631579 1296.67522,73.0680359 L1296.67522,1040.9371 C1296.9448,1059.58922 1311.41207,1074.08216 1329.61489,1075.87933 C1330.37227,1075.98203 2174.95507,1075.87933 2174.95507,1075.87933 C2343.41463,1075.87933 2479.88447,940.937099 2479.88447,772.477535 C2479.87163,604.017972 2343.4018,467.471117 2174.94223,467.471117 Z" id="Shape"></path>
        </g>
    </g>
</svg>
